X:1
T: the McConnell's Highland
S:Paul O'Shaughnessy
Z:Juergen.Gier@post.rwth-aachen.de
M:C|
L:1/8
K:G
DG|B2Bd A2AB|de (3faf edBG|B2Bd A2Ag|fa (3efe d2::dg|\
faaf gabg|afdf edBg|faaf gabg|af (3efe d2dg|\
faaf gabg|afdf edBG|B2Bd A2Ag|fa (3efe d2|]
